X: 10452
T: DURHAM RANGERS' HORNPIPE
C: Arranged by W. B. Laybourn
R: hornpipe, reel
B: K\"ohler's Violin Repository, v.1, 1885 p.45 #2
F: http://www.archive.org/details/klersviolinrepos01edin
Z: 2011 John Chambers <jc:trillian.mit.edu>
M: C|
L: 1/8
K: D
(uFG) |\
ABAF A2(de) | fgef d2(dA) | BcdB ABAF | G2E2 E2(FG) |
ABAF A2(de) | fgef d2(dA) | BcdB ABAG | F2D2 D2 :: ug2 |
(fe)fg (af)de | (fe)fg (af)df | (gb)ag (fa)gf | g2e2 e2FG |
ABAF A2(de) | fgef d2(dA) | (Bc)dB (AB)AG | F2D2 D2 :|

%%sep 2 1 500

